X: 6448
T: Castlerock Road
R: reel
M: 4/4
K: Dmajor
|:ABAG FAdf|edBc cd (3ddd|gBdg fedf|e2ef edBd|
(3AAA GA FAdf|edBc cd (3ddd|gBdg fedf|1 edce dAGA:|2 edce dg (3ggg||
|:gBdg fedf|e2ef edBd|gBdg fd (3ddd|dcAG FAD2|
gBdg fedf|e2ef edBd|ABde fgaf|fece cd (3ddd:|
|:faaf (3aaa fa|eaae (3aaa ea|dbbd (3bbb db|caac (3aaa ca|
AB (3BBA Bcde|f2ff edBd|ABde fgaf|fece cd (3ddd:|

